svgs/sharp-light/hospital.svg

<svg xmlns="http://www.w3.org/2000/svg" viewBox="0 0 640 512"><!--! Font Awesome Pro 6.6.0 by @fontawesome - https://fontawesome.com License - https://fontawesome.com/license (Commercial License) Copyright 2024 Fonticons, Inc. --><path d="M160 0l16 0L464 0l16 0 0 16 0 80 144 0 16 0 0 16 0 80 0 32 0 64 0 32 0 176 0 16-16 0-208 0s0 0 0 0l-32 0-16 0-96 0-16 0-32 0s0 0 0 0L16 512 0 512l0-16L0 320l0-32 0-64 0-32 0-80L0 96l16 0 144 0 0-80 0-16zM608 128l-128 0 0 208 0 144 128 0 0-160-80 0-16 0 0-32 16 0 80 0 0-64-80 0-16 0 0-32 16 0 80 0 0-64zM32 224l0 64 80 0 16 0 0 32-16 0-80 0 0 160 128 0 0-352L32 128l0 64 80 0 16 0 0 32-16 0-80 0zM448 480l0-144 0-304L192 32l0 448 64 0 0-112 0-16 16 0 96 0 16 0 0 16 0 112 64 0zm-96 0l0-96-64 0 0 96 64 0zM296 64l48 0 16 0 0 16 0 24 24 0 16 0 0 16 0 48 0 16-16 0-24 0 0 24 0 16-16 0-48 0-16 0 0-16 0-24-24 0-16 0 0-16 0-48 0-16 16 0 24 0 0-24 0-16 16 0zm16 56l0 16-16 0-24 0 0 16 24 0 16 0 0 16 0 24 16 0 0-24 0-16 16 0 24 0 0-16-24 0-16 0 0-16 0-24-16 0 0 24z"/></svg>

<svg xmlns="http://www.w3.org/2000/svg" viewBox="0 0 640 512"><!--! Font Awesome Pro 6.4.2 by @fontawesome - https://fontawesome.com License - https://fontawesome.com/license (Commercial License) Copyright 2023 Fonticons, Inc. --><path d="M160 0h16H464h16V16 96H624h16v16 80 32 64 32V496v16H624 416v0H384 368 272 256 224v0H16 0V496 320 288 224 192 112 96H16 160V16 0zM608 128H480V336 480H608V320H528 512V288h16 80V224H528 512V192h16 80V128zM32 224v64h80 16v32H112 32V480H160V128H32v64h80 16v32H112 32zM448 480V336 32H192V480h64V368 352h16 96 16v16V480h64zm-96 0V384H288v96h64zM296 64h48 16V80v24h24 16v16 48 16H384 360v24 16H344 296 280V208 184H256 240V168 120 104h16 24V80 64h16zm16 56v16H296 272v16h24 16v16 24h16V168 152h16 24V136H344 328V120 96H312v24z"/></svg>
